css/images/noun-tokyo-1039866.svg

<svg xmlns="http://www.w3.org/2000/svg" xmlns:xlink="http://www.w3.org/1999/xlink" version="1.1" x="0px" y="0px" viewBox="0 0 150 187.5" enable-background="new 0 0 150 150" xml:space="preserve"><g><g><path d="M-1.5233593,30.7237167V-1.4089651l1.401472,0.2724764c49.9011383,9.6930361,100.4334564,9.6918859,150.189743,0    l1.4026184-0.2736262v32.133831l-1.3830719-0.2460327c-49.8448105-8.8526115-100.3874817-8.8526115-150.2276917,0    L-1.5233593,30.7237167z M74.9735565,21.4836597c24.7689209,0,49.5401382,2.1453209,74.1423492,6.4325161V1.4445652    c-49.1411896,9.390667-99.0101395,9.3895178-148.2846985,0v26.471611    C25.4334202,23.6289806,50.2046394,21.4836597,74.9735565,21.4836597z"/></g><g><path d="M151.4704742,47.8000603H-1.5233593V34.4050255h152.9938354V47.8000603z M0.8312056,45.4454956h148.2846985v-8.6859055    H0.8312056V45.4454956z"/></g><g><path d="M151.5233612,151.4101105H-1.4704735v-10.8473206h152.9938354V151.4101105z M0.8840913,149.0555573h148.2846985    v-6.1381989H0.8840913V149.0555573z"/></g><g><rect x="35.5794334" y="25.1787624" width="2.3545649" height="10.4035435"/></g><g><rect x="112.0131149" y="25.1787624" width="2.3545649" height="10.4035435"/></g><g><path d="M35.4391708,56.29282H12.7017536V45.4454956h22.7374172V56.29282z M15.0563183,53.9382553h18.0282879v-6.138195    H15.0563183V53.9382553z"/></g><g><path d="M29.2814312,142.9173584H18.8594933V53.9382553h10.4219379V142.9173584z M21.2140579,140.5627899h5.7128086V56.29282    h-5.7128086V140.5627899z"/></g><g><path d="M86.394577,56.29282H63.6583099V45.4454956H86.394577V56.29282z M66.0128708,53.9382553h18.0271378v-6.138195H66.0128708    V53.9382553z"/></g><g><path d="M80.2379837,142.9173584H69.8148956V53.9382553h10.4230881V142.9173584z M72.1694641,140.5627899h5.7139587V56.29282    h-5.7139587V140.5627899z"/></g><g><path d="M137.3511353,56.29282h-22.7374191V45.4454956h22.7374191V56.29282z M116.968277,53.9382553h18.0282898v-6.138195    H116.968277V53.9382553z"/></g><g><path d="M131.1933899,142.9173584h-10.421936V53.9382553h10.421936V142.9173584z M123.1260223,140.5627899h5.7127991V56.29282    h-5.7127991V140.5627899z"/></g></g><text x="0" y="165" fill="#000000" font-size="5px" font-weight="bold" font-family="'Helvetica Neue', Helvetica, Arial-Unicode, Arial, Sans-serif">Created by DinosoftLabs</text><text x="0" y="170" fill="#000000" font-size="5px" font-weight="bold" font-family="'Helvetica Neue', Helvetica, Arial-Unicode, Arial, Sans-serif">from the Noun Project</text></svg>

<svg width="150" height="188" viewBox="0 0 150 188" fill="none" xmlns="http://www.w3.org/2000/svg">
<g clip-path="url(#clip0_1_425)">
<path d="M-1.52336 30.7237V-1.40898L-0.121889 -1.1365C49.7792 8.55654 100.312 8.55539 150.068 -1.1365L151.47 -1.41013V30.7237L150.087 30.4777C100.243 21.6251 49.6999 21.6251 -0.140291 30.4777L-1.52336 30.7237ZM74.9736 21.4836C99.7425 21.4836 124.514 23.629 149.116 27.9162V1.44455C99.9747 10.8352 50.1058 10.8341 0.831205 1.44455V27.9162C25.4334 23.629 50.2046 21.4836 74.9736 21.4836Z" fill="black"/>
<path d="M151.47 47.8001H-1.52336V34.405H151.47V47.8001ZM0.831204 45.4455H149.116V36.7596H0.831204V45.4455Z" fill="black"/>
<path d="M151.523 151.41H-1.47047V140.563H151.523V151.41ZM0.884091 149.056H149.169V142.917H0.884091V149.056Z" fill="black"/>
<path d="M37.934 25.1787H35.5794V35.5823H37.934V25.1787Z" fill="black"/>
<path d="M114.368 25.1787H112.013V35.5823H114.368V25.1787Z" fill="black"/>
<path d="M35.4392 56.2928H12.7018V45.4455H35.4392V56.2928ZM15.0563 53.9383H33.0846V47.8001H15.0563V53.9383Z" fill="black"/>
<path d="M29.2814 142.917H18.8595V53.9382H29.2814V142.917ZM21.2141 140.563H26.9269V56.2928H21.2141V140.563Z" fill="black"/>
<path d="M86.3946 56.2928H63.6583V45.4455H86.3946V56.2928ZM66.0129 53.9383H84.04V47.8001H66.0129V53.9383Z" fill="black"/>
<path d="M80.238 142.917H69.8149V53.9382H80.238V142.917ZM72.1695 140.563H77.8834V56.2928H72.1695V140.563Z" fill="black"/>
<path d="M137.351 56.2928H114.614V45.4455H137.351V56.2928ZM116.968 53.9383H134.997V47.8001H116.968V53.9383Z" fill="black"/>
<path d="M131.193 142.917H120.771V53.9382H131.193V142.917ZM123.126 140.563H128.839V56.2928H123.126V140.563Z" fill="black"/>
</g>
<defs>
<clipPath id="clip0_1_425">
<rect width="150" height="187.5" fill="white"/>
</clipPath>
</defs>
</svg>
